24x24/apps/info.mumble.Mumble.svg

<svg xmlns="http://www.w3.org/2000/svg" width="24" height="24" version="1">
 <path style="opacity:0.2" d="m 7,12.5 c -2.76142,0 -5,2.23858 -5,5 0,2.76142 2.23858,5 5,5 z m 10,0 v 9 H 14.908203 C 14.963861,21.342779 15,21.17676 15,21 v -1 c 0,-0.831 -0.669,-1.5 -1.5,-1.5 h -3 C 9.669,18.5 9,19.169 9,20 v 1 c 0,0.831 0.669,1.5 1.5,1.5 h 3 3.5 c 2.76142,0 5,-2.23858 5,-5 0,-2.76142 -2.23858,-5 -5,-5 z"/>
 <path style="opacity:0.2" d="M 10,2.5 C 10,2.5 8.79125,2.4862 7.552735,3.10547 6.31422,3.724725 5,5.166665 5,7.5 v 7 h 2 v -7 C 7,5.833335 7.68578,5.275275 8.447265,4.89453 8.6455,4.795415 8.812215,4.773375 9,4.717775 V 7.5 C 9,8.833335 9.81422,9.775275 10.552735,10.14453 11.29125,10.51379 12,10.5 12,10.5 c 0,0 0.70875,0.0138 1.447265,-0.35547 C 14.18578,9.775275 15,8.833335 15,7.5 V 4.717775 c 0.187785,0.0556 0.3545,0.07764 0.552735,0.176755 C 16.31422,5.275275 17,5.833335 17,7.5 v 7 h 2 v -7 C 19,5.166665 17.68578,3.724725 16.447265,3.10547 15.20875,2.48621 14,2.5 14,2.5 h -1 v 5 C 13,8.166665 12.81422,8.224725 12.552735,8.35547 12.29125,8.48621 12,8.5 12,8.5 12,8.5 11.70875,8.4862 11.447265,8.35547 11.18578,8.224725 11,8.166665 11,7.5 v -5 z"/>
 <path style="fill:#195bbd" d="M 10,2 C 10,2 8.79125,1.9862 7.552735,2.60547 6.31422,3.224725 5,4.666665 5,7 v 7 H 7 V 7 C 7,5.333335 7.68578,4.775275 8.447265,4.39453 8.6455,4.295415 8.812215,4.273375 9,4.217775 V 7 C 9,8.333335 9.81422,9.275275 10.552735,9.64453 11.29125,10.01379 12,10 12,10 12,10 12.70875,10.0138 13.447265,9.64453 14.18578,9.275275 15,8.333335 15,7 V 4.217775 c 0.187785,0.0556 0.3545,0.07764 0.552735,0.176755 C 16.31422,4.775275 17,5.333335 17,7 v 7 h 2 V 7 C 19,4.666665 17.68578,3.224725 16.447265,2.60547 15.20875,1.98621 14,2 14,2 H 13 V 7 C 13,7.666665 12.81422,7.724725 12.552735,7.85547 12.29125,7.98621 12,8 12,8 12,8 11.70875,7.9862 11.447265,7.85547 11.18578,7.724725 11,7.666665 11,7 V 2 Z"/>
 <path style="fill:#229cfe" d="M 7 12 C 4.23858 12 2 14.23858 2 17 C 2 19.76142 4.23858 22 7 22 L 7 12 z M 17 12 L 17 21 L 14.908203 21 C 14.963861 20.842779 15 20.67676 15 20.5 L 15 19.5 C 15 18.669 14.331 18 13.5 18 L 10.5 18 C 9.669 18 9 18.669 9 19.5 L 9 20.5 C 9 21.331 9.669 22 10.5 22 L 13.5 22 L 17 22 C 19.76142 22 22 19.76142 22 17 C 22 14.23858 19.76142 12 17 12 z"/>
 <path style="opacity:0.1;fill:#f4f4f7" d="M 10,2 C 10,2 8.79125,1.9862 7.552735,2.60547 6.31422,3.224725 5,4.666665 5,7 V 7.5 C 5,5.166665 6.31422,3.724725 7.552735,3.10547 8.79125,2.4862 10,2.5 10,2.5 h 1 V 2 Z m 3,0 v 0.5 h 1 c 0,0 1.20875,-0.0138 2.447265,0.60547 C 17.68578,3.724725 19,5.166665 19,7.5 V 7 C 19,4.666665 17.68578,3.224725 16.447265,2.60547 15.20875,1.98621 14,2 14,2 Z m -2,5 v 0.5 c 0,0.666665 0.18578,0.724725 0.447265,0.85547 C 11.70875,8.4862 12,8.5 12,8.5 12,8.5 12.29125,8.4862 12.552735,8.35547 12.81422,8.224725 13,8.166665 13,7.5 V 7 C 13,7.666665 12.81422,7.724725 12.552735,7.85547 12.29125,7.98621 12,8 12,8 12,8 11.70875,7.9862 11.447265,7.85547 11.18578,7.724725 11,7.666665 11,7 Z"/>
 <path style="opacity:0.2;fill:#f4f4f7" d="M 7 12 C 4.23858 12 2 14.23858 2 17 C 2 17.084307 2.0075944 17.166717 2.0117188 17.25 C 2.1426838 14.605387 4.3228867 12.5 7 12.5 L 7 12 z M 17 12 L 17 12.5 C 19.677113 12.5 21.857316 14.605387 21.988281 17.25 C 21.992406 17.166717 22 17.084307 22 17 C 22 14.23858 19.76142 12 17 12 z M 10.5 18 C 9.669 18 9 18.669 9 19.5 L 9 20 C 9 19.169 9.669 18.5 10.5 18.5 L 13.5 18.5 C 14.331 18.5 15 19.169 15 20 L 15 19.5 C 15 18.669 14.331 18 13.5 18 L 10.5 18 z M 15 21 C 15 21.17676 14.963861 21.342779 14.908203 21.5 L 17 21.5 L 17 21 L 15 21 z"/>
</svg>

<svg xmlns="http://www.w3.org/2000/svg" width="24" height="24" version="1"><path style="opacity:.2" d="M7 12.5a5 5 0 0 0 0 10zm10 0v9h-2.092c.056-.157.092-.323.092-.5v-1c0-.831-.669-1.5-1.5-1.5h-3c-.831 0-1.5.669-1.5 1.5v1c0 .831.669 1.5 1.5 1.5H17a5 5 0 0 0 0-10z"/><path style="opacity:.2" d="M10 2.5s-1.209-.014-2.447.605C6.314 3.725 5 5.167 5 7.5v7h2v-7c0-1.667.686-2.225 1.447-2.605.199-.1.365-.122.553-.177V7.5c0 1.333.814 2.275 1.553 2.645.738.369 1.447.355 1.447.355s.709.014 1.447-.355C14.186 9.775 15 8.833 15 7.5V4.718c.188.055.354.077.553.177.761.38 1.447.938 1.447 2.605v7h2v-7c0-2.333-1.314-3.775-2.553-4.395C15.21 2.486 14 2.5 14 2.5h-1v5c0 .667-.186.725-.447.855C12.29 8.486 12 8.5 12 8.5s-.291-.014-.553-.145C11.186 8.225 11 8.167 11 7.5v-5z"/><path style="fill:#195bbd" d="M10 2s-1.209-.014-2.447.605C6.314 3.225 5 4.667 5 7v7h2V7c0-1.667.686-2.225 1.447-2.605.199-.1.365-.122.553-.177V7c0 1.333.814 2.275 1.553 2.645C11.29 10.014 12 10 12 10s.709.014 1.447-.355C14.186 9.275 15 8.333 15 7V4.218c.188.055.354.077.553.177C16.314 4.775 17 5.333 17 7v7h2V7c0-2.333-1.314-3.775-2.553-4.395C15.21 1.986 14 2 14 2h-1v5c0 .667-.186.725-.447.855C12.29 7.986 12 8 12 8s-.291-.014-.553-.145C11.186 7.725 11 7.667 11 7V2z"/><path style="fill:#229cfe" d="M7 12a5 5 0 0 0 0 10V12zm10 0v9h-2.092c.056-.157.092-.323.092-.5v-1c0-.831-.669-1.5-1.5-1.5h-3c-.831 0-1.5.669-1.5 1.5v1c0 .831.669 1.5 1.5 1.5H17a5 5 0 0 0 0-10z"/><path style="opacity:.1;fill:#f4f4f7" d="M10 2s-1.209-.014-2.447.605C6.314 3.225 5 4.667 5 7v.5c0-2.333 1.314-3.775 2.553-4.395C8.79 2.486 10 2.5 10 2.5h1V2zm3 0v.5h1s1.209-.014 2.447.605C17.686 3.725 19 5.167 19 7.5V7c0-2.333-1.314-3.775-2.553-4.395C15.21 1.986 14 2 14 2zm-2 5v.5c0 .667.186.725.447.855.262.131.553.145.553.145s.291-.014.553-.145c.261-.13.447-.188.447-.855V7c0 .667-.186.725-.447.855C12.29 7.986 12 8 12 8s-.291-.014-.553-.145C11.186 7.725 11 7.667 11 7z"/><path style="opacity:.2;fill:#f4f4f7" d="M7 12a5 5 0 0 0-5 5c0 .084.008.167.012.25A4.996 4.996 0 0 1 7 12.5V12zm10 0v.5a4.996 4.996 0 0 1 4.988 4.75c.004-.083.012-.166.012-.25a5 5 0 0 0-5-5zm-6.5 6c-.831 0-1.5.669-1.5 1.5v.5c0-.831.669-1.5 1.5-1.5h3c.831 0 1.5.669 1.5 1.5v-.5c0-.831-.669-1.5-1.5-1.5h-3zm4.5 3c0 .177-.036.343-.092.5H17V21h-2z"/></svg>
